X:765
M:C|
L:1/8
K:F
fefc ABcA|fdcA G2AG|F2f2 cdBc|A2F2F2:|
|:c/d/e|fefg fgaf|gfga agfd|cdfg fgag|fgfc ABcA|
defc ABcA|fdcA G2AG|F2f2 cdBc|A2F2F2:|

